X:1
T:That muse which sung - Kirbye
T:#
%%score { 1 | 2 } 3 4 5
L:1/8
Q:1/4=120
M:4/4
K:F
V:1 treble nm="Soprano I" snm="S"
V:2 treble 
V:3 treble nm="Alto" snm="A"
V:4 treble-8 nm="Tenor" snm="T"
V:5 bass nm="Bass" snm="B"
V:1
 z8 |"^That muse which sung" d8 | f6 f2 | (edcB A2) f2- | f2 e4"^George Kirbye\n(1565-1634)" d2 | %5
w: |That|muse which|sung * * * * the|* beau- ty|
 (^c2 d4) c2 |[M:4/4] d8 | z2 e2 f3 e | (dcBA G4) | z8 | G4 d4 | z2 B2 (cBAG | ^F2) G2 A2 B2 | %13
w: of * thy|face,|that muse which|sung, * * * *||that muse|which sung * * *|* the beau- ty|
 A2 (G4 ^F2) | G2 G2 _B2 G2 | d2 B2 A2 d2 | ^c3 d e2 c2 | d4 d2 G2 | B2 G2 d2 B2 | A8- | A8 | %21
w: of thy *|face In sweet well-|tun- ed songs And|har- mo- ny that|pleas- ed, in|sweet well- tun- ed|songs||
 z2 A4 d2- | d2 d2 e2 f2 | e8 | e4 e4 | d6 _e2 | c4 d4- | d4 c4 | d8- | d8 | z8 | z4 z2 d2 | %32
w: and har\-|* mo- ny that|pleas-|ed, If|still I|be dis\-|* eas-|ed,|||Can|
 B3 B c2 c2 | d4- z2 f2 | f4 d4 | d4 z2 =f2 | e4 d4 | B8 | A8 | A8 | z4 =f4- | f4 f3 f | %42
w: ca- rol of thy|wrongs And|blaze those|faults that|will thy|worth|dis-|grace.|Yet|* if thou|
 e2 d2 ^c4- | c4 ^c4 | z4 A4- | A4 d3 d | c2 B2 A4 | A2 d2 A3 B | c4 z2 g2 | d3 e f4- | f4 z2 c2 | %51
w: dost re- pent|* thee,|yet|* if thou|dost re- pent|thee, I will for-|give, I|will for- give;|* That|
 c3 c c2 A2 | A4 A4 | z4 d4- | d4 c3 c | c2 A2 A4- | A4 A4 | z4 =c4- | c4 B3 B | A2 G2 E4 | ^F8 | %61
w: mends shall well con-|tent me.|Yet|* if thou|dost re- pent|* thee,|yet|* if thou|dost re- pent|thee,|
 z2 c2 G3 A | B4 z2 d2 | c3 d e2 f2 | e3 f e2 d2 | ^c4 d4 | z4 z2 g2 | d3 e f4- | %68
w: I will for-|give, I|will for- give; that|mends shall well con-|tent me.|I|will for- give;|
 f4 z2[Q:1/4=118] d2 |[Q:1/4=115] c3[Q:1/4=113] d[Q:1/4=111] c2[Q:1/4=109] B2 |[Q:1/4=104] A8 | %71
w: * that|mends shall well con-|tent|
[Q:1/4=100] !fermata!=B8 |] %72
w: me.|
V:2
 z8 | z8 | z8 | z8 | z8 | z4 e4 |[M:4/4] f6 f2 | (edcB A4) | z4 d4 | f6 f2 | (edcB A2) d2 | %11
w: |||||That|muse which|sung, * * * *|that|muse which|sung * * * * the|
 B4 _e4 | d8- | d4 d4 | d8- | d8 | z8 | z2 A2 B2 G2 | d2 B2 A2 d2 | ^c3 d e2 c2 | d8 | ^c2 e2 f4- | %22
w: beau- ty|of|* thy|face|||In sweet well-|tun- ed songs And|har- mo- ny that|pleas-|ed, and har\-|
 f4 e2 d2- | d2 c2 =B4 | ^c4 =c4 | A4 _B4 | G8 | G4 (c4- | c4 B4) | A4 z2 A2 | F3 F G2 G2 | %31
w: * mo- ny|* that pleas-|ed, If|still I|be|dis- eas\-||ed, Can|ca- rol of thy|
 A4 z2 A2 | G3 F G2 A2 | B4 z2 d2 | c4 B4 | A8 | z4 z2 f2 | e4 d4 | ^c2 (d4 c2) | d8 | z4 d4- | %41
w: wrongs, can|ca- rol of thy|wrongs And|blaze those|faults|that|will thy|worth dis\- *|grace.|Yet|
 d4 c3 c | c2 A2 A4- | A4 A4 | z4 =c4- | c4 B3 B | A2 G2 E4 | ^F8 | z2 c2 G3 A | B4 z2 d2 | %50
w: * if thou|dost re- pent|* thee,|yet|* if thou|dost re- pent|thee,|I will for-|give, I|
 c3 d e2 f2 | e3 f e2 d2 | ^c4 d4 | z4 =f4- | f4 f3 f | e2 d2 ^c4- | c4 ^c4 | z4 A4- | A4 d3 d | %59
w: will for- give; That|mends shall well con-|tent me.|Yet|* if thou|dost re- pent|* thee,|yet|* if thou|
 c2 B2 A4 | A2 d2 A3 B | c4 z2 g2 | d3 e f4- | f4 z2 c2 | c3 c c2 A2 | A4 A4 | z2 c2 G3 A | %67
w: dost re- pent|thee, I will for-|give, I|will for- give;|* that|mends shall well con-|tent me.|I will for-|
 B4 z2 d2 | c3 d e2 f2 | f3 f f2 d2 | d8 | !fermata!d8 |] %72
w: give, I|will for- give; that|mends shall well con-|tent|me.|
V:3
 G8 | B6 B2 | (AGFE D2) A2 | c6 A2 | B3 A (F2 G2- | G2) F2 E2 A2 |[M:4/4] A6 A2 | A4 z2 A2 | %8
w: That|muse which|sung * * * * the|beau- ty|of thy face, *|* the beau- ty|of thy|face, that|
 B6 B2 | (AGFE D4) | z2 E2 F3 F | _E2 G2 G4 | z2 B2 A2 G2 | (^F2 G2 A2) A2 | =B4 z4 | z2 D2 F2 D2 | %16
w: muse which|sung * * * *|the beau- ty|of thy face,|the beau- ty|of * * her|face|In sweet well-|
 A2 F2 E4 | z8 | z8 | z4 z2 E2 | F2 D2 A2 F2 | E4 z2 D2 | A6 A2 | ^G2 A4 G2 | A8 | z8 | z4 B4- | %27
w: tun- ed songs,|||in|sweet well- tun- ed|songs and|har- mo-|ny that pleas-|ed,||If|
 G6 A2 | ^F4 G4 | ^F4 F2 =F2 | D3 C D2 E2 | F4 z2 F2 | _E3 F E2 C2 | F4 z2 B2 | A4 G4 | ^F4 z2 A2 | %36
w: still I|be dis-|eas- ed, Can|ca- rol of thy|wrongs, can|ca- rol of thy|wrongs And|blaze those|faults that|
 A4 F4 | G6 (F2 | E2 D2 E4) | ^F8 | z4 B4- | B4 A3 A | G2 F2 E4- | E4 E4 | z4 F4- | F4 F3 F | %46
w: will thy|worth dis\-||grace.|Yet|* if thou|dost re- pent|* thee,|yet|* if thou|
 F2 D2 ^C4 | D8 | z2 A2 E3 F | G2 B2 A4- | A2 A2 G2 A2 | G3 A G2 F2 | E4 ^F4 | z4 B4- | B4 A3 A | %55
w: dost re- pent|thee,|I will for-|give, I will|* for- give; That|mends shall well con-|tent me.|Yet|* if thou|
 G2 F2 E4- | E4 E4 | z4 F4- | F4 F3 F | F2 D2 ^C4 | D8 | z2 A2 E3 F | G2 B2 A4- | A2 A2 G2 A2 | %64
w: dost re- pent|* thee,|yet|* if thou|dost re- pent|thee,|I will for-|give, I will|* for- give; that|
 G3 A G2 F2 | E4 ^F4 | z2 A2 E3 F | G2 B2 A4- | A2 A2 G2 F2 | A3 B A2 G2- | G2 (^FE F4) | %71
w: mends shall well con-|tent me.|I will for-|give, I will|* for- give; that|mends shall well con\-|* tent * *|
 !fermata!G8 |] %72
w: me.|
V:4
 z8 | G8 | d6 d2 | (cBAG F3) F | G2 A2 B2 G2 | A8 |[M:4/4][K:treble-8] z4 D4 | A4 z2 F2 | %8
w: |That|muse which|sung * * * * the|beau- ty of thy|face,|that|muse which|
 (GABc d2) G2 | d6 d2 | (cBAG F4) | z2 _e2 (edcB | A2) G2 ^F2 G2 | A2 (B2 A4) | G8 | z4 z2 g2 | %16
w: sung, * * * * that|muse which|sung * * * *|which sung * * *|* the beau- ty|of thy *|face|In|
 e2 a2 a3 g | ^f2 f2 g3 g | d4 z2 g2 | e8 | d8 | A4 d4- | d2 d2 ^c2 d2 | e8 | A8 | z8 | z4 d4 | %27
w: sweet well- tun- ed|songs And har- mo-|ny that|pleas-|ed,|and har\-|* mo- ny that|pleas-|ed,||If|
 B4 c4 | A4 G4 | A4 A2 A2 | B3 A G2 c2 | F8 | z8 | z4 z2 d2 | f3 f B4 | z2 d2 d4 | ^c4 d2 B2 | %37
w: still I|be dis-|eas- ed, Can|ca- rol of thy|wrongs,||And|blaze those faults|that will|thy worth dis-|
 B4 z2 d2 | a2 f2 e3 e | d8 | z4 B4- | B4 f3 f | c2 d2 A4- | A4 A4 | z8 | z8 | z8 | z4 z2 d2 | %48
w: grace, that|will thy worth dis-|grace.|Yet|* if thou|dost re- pent|* thee,||||I|
 A3 B c4 | z4 z2 d2 | A3 B c2 F2 | c3 A c2 d2 | A4 d4 | z4 B4- | B4 f3 f | c2 d2 A4- | A4 A4 | z8 | %58
w: will for- give,|I|will for- give; That|mends shall well con-|tent me.|Yet|* if thou|dost re- pent|* thee,||
 z8 | z8 | z4 z2 d2 | A3 B c4 | z4 z2 d2 | A3 B c2 F2 | c3 A c2 d2 | A4 d4 | z8 | z4 z2 d2 | %68
w: ||I|will for- give,|I|will for- give; that|mends shall well con-|tent me.||I|
 A3 B c2 d2 | A3 F A2 B2 | d8 | !fermata!d8 |] %72
w: will for- give; that|mends shall well con-|tent|me.|
V:5
 z8 | z8 | z8 | z8 | z8 | z4 A,4 |[M:4/4] D6 D2 | (CB,A,G, F,2) D,2 | G,6 G,2 | %9
w: |||||That|muse which|sung, * * * * that|muse which|
 (F,E,D,C, B,,3) B,, | C,4 D,4 | _E,4 C,4 | D,8- | D,8 | z4 z2 G,2 | B,2 G,2 D2 B,2 | A,8 | %17
w: sung * * * * the|beau- ty|of thy|face||In|sweet well- tun- ed|songs|
 D,4 G,4- | G,2 G,2 ^F,2 G,2 | A,8 | D,8 | z8 | z8 | z8 | z4 A,4 | ^F,4 G,4 | _E,4 D,4 | _E,8 | %28
w: And har\-|* mo- ny that|pleas-|ed,||||If|still I|be dis-|eas-|
 D,8- | D,8 | z8 | z4 z2 D,2 | _E,3 D, C,2 F,2 | B,,4 z2 B,2 | F,4 G,4 | D,4 z2 D2 | A,4 B,4 | %37
w: ed,|||Can|ca- rol of thy|wrongs And|blaze those|faults that|will thv|
 G,8 | A,8 | D,8 | z8 | z8 | z8 | z8 | z4 F,4- | F,4 B,3 B, | F,2 G,2 A,4 | D,8 | z8 | %49
w: worth|dis-|grace.|||||Yet|* if thou|dost re- pent|thee,||
 z2 G,2 D,3 E, | F,4 z4 | z8 | z8 | z8 | z8 | z8 | z8 | z4 F,4- | F,4 B,3 B, | F,2 G,2 A,4 | D,8 | %61
w: I will for-|give;|||||||Yet|* if thou|dost re\-pent *|thee,|
 z8 | z2 G,2 D,3 E, | F,4 z4 | z8 | z4 z2 D2 | A,3 B, C4 | z2 G,2 D,3 E, | F,4 z2 B,,2 | %69
w: |I will for-|give,||I|will for- give,|I will for-|give; that|
 F,3 D, F,2 G,2 | D,8 | !fermata!G,8 |] %72
w: mends shall well con-|tent|me.|

